; G-Code generated by Simplify3D(R) Version 4.1.2
; Jan 11, 2020 at 11:31:40 AM
; Settings Summary
;   processName,Process1
;   applyToModels,divisor soporte
;   profileName,PRUSA TECNOBOT (modified)
;   profileVersion,2020-01-10 15:13:17
;   baseProfile,Default (modified)
;   printMaterial,PLA
;   printQuality,Medium
;   printExtruders,
;   extruderName,Primary Extruder
;   extruderToolheadNumber,0
;   extruderDiameter,0.4
;   extruderAutoWidth,1
;   extruderWidth,0.48
;   extrusionMultiplier,0.9
;   extruderUseRetract,1
;   extruderRetractionDistance,1.6
;   extruderExtraRestartDistance,0
;   extruderRetractionZLift,0
;   extruderRetractionSpeed,2000
;   extruderUseCoasting,0
;   extruderCoastingDistance,0.2
;   extruderUseWipe,0
;   extruderWipeDistance,5
;   primaryExtruder,0
;   layerHeight,0.2
;   topSolidLayers,8
;   bottomSolidLayers,5
;   perimeterOutlines,3
;   printPerimetersInsideOut,1
;   startPointOption,2
;   startPointOriginX,0
;   startPointOriginY,0
;   sequentialIslands,0
;   spiralVaseMode,0
;   firstLayerHeightPercentage,100
;   firstLayerWidthPercentage,100
;   firstLayerUnderspeed,0.5
;   useRaft,0
;   raftExtruder,0
;   raftTopLayers,3
;   raftBaseLayers,2
;   raftOffset,3
;   raftSeparationDistance,0.14
;   raftTopInfill,100
;   aboveRaftSpeedMultiplier,0.3
;   useSkirt,1
;   skirtExtruder,0
;   skirtLayers,1
;   skirtOutlines,4
;   skirtOffset,4
;   usePrimePillar,0
;   primePillarExtruder,999
;   primePillarWidth,12
;   primePillarLocation,7
;   primePillarSpeedMultiplier,1
;   useOozeShield,0
;   oozeShieldExtruder,999
;   oozeShieldOffset,2
;   oozeShieldOutlines,1
;   oozeShieldSidewallShape,1
;   oozeShieldSidewallAngle,30
;   oozeShieldSpeedMultiplier,1
;   infillExtruder,0
;   internalInfillPattern,Full Honeycomb
;   externalInfillPattern,Rectilinear
;   infillPercentage,16
;   outlineOverlapPercentage,15
;   infillExtrusionWidthPercentage,100
;   minInfillLength,5
;   infillLayerInterval,1
;   internalInfillAngles,0,120,-120
;   overlapInternalInfillAngles,0
;   externalInfillAngles,45,-45
;   generateSupport,1
;   supportExtruder,0
;   supportInfillPercentage,30
;   supportExtraInflation,0
;   supportBaseLayers,0
;   denseSupportExtruder,0
;   denseSupportLayers,0
;   denseSupportInfillPercentage,70
;   supportLayerInterval,1
;   supportHorizontalPartOffset,0.3
;   supportUpperSeparationLayers,1
;   supportLowerSeparationLayers,1
;   supportType,0
;   supportGridSpacing,4
;   maxOverhangAngle,45
;   supportAngles,0
;   temperatureName,Primary Extruder,cama Caliente
;   temperatureNumber,0,1
;   temperatureSetpointCount,1,2
;   temperatureSetpointLayers,1,1,8
;   temperatureSetpointTemperatures,200,60,50
;   temperatureStabilizeAtStartup,1,1
;   temperatureHeatedBed,0,1
;   fanLayers,1,2
;   fanSpeeds,0,100
;   blipFanToFullPower,0
;   adjustSpeedForCooling,1
;   minSpeedLayerTime,15
;   minCoolingSpeedSlowdown,20
;   increaseFanForCooling,0
;   minFanLayerTime,45
;   maxCoolingFanSpeed,100
;   increaseFanForBridging,0
;   bridgingFanSpeed,100
;   use5D,1
;   relativeEdistances,0
;   allowEaxisZeroing,1
;   independentExtruderAxes,0
;   includeM10123,0
;   stickySupport,1
;   applyToolheadOffsets,0
;   gcodeXoffset,0
;   gcodeYoffset,0
;   gcodeZoffset,0
;   overrideMachineDefinition,0
;   machineTypeOverride,0
;   strokeXoverride,200
;   strokeYoverride,200
;   strokeZoverride,200
;   originOffsetXoverride,0
;   originOffsetYoverride,0
;   originOffsetZoverride,0
;   homeXdirOverride,-1
;   homeYdirOverride,-1
;   homeZdirOverride,-1
;   flipXoverride,1
;   flipYoverride,-1
;   flipZoverride,1
;   toolheadOffsets,0,0|0,0|0,0|0,0|0,0|0,0
;   overrideFirmwareConfiguration,0
;   firmwareTypeOverride,RepRap (Marlin/Repetier/Sprinter)
;   GPXconfigOverride,r2
;   baudRateOverride,115200
;   overridePrinterModels,0
;   printerModelsOverride
;   startingGcode,G28 ; home all axes
;   layerChangeGcode,
;   retractionGcode,
;   toolChangeGcode,
;   endingGcode,M104 S0 ; turn off extruder,M140 S0 ; turn off bed,G28 X0 ; home axix x,M84 ; disable motors
;   exportFileFormat,gcode
;   celebration,0
;   celebrationSong,Random Song
;   postProcessing,
;   defaultSpeed,3600
;   outlineUnderspeed,0.5
;   solidInfillUnderspeed,0.8
;   supportUnderspeed,0.8
;   rapidXYspeed,4800
;   rapidZspeed,1000
;   minBridgingArea,50
;   bridgingExtraInflation,0
;   bridgingExtrusionMultiplier,1
;   bridgingSpeedMultiplier,1
;   useFixedBridgingAngle,0
;   fixedBridgingAngle,0
;   applyBridgingToPerimeters,0
;   filamentDiameters,1.75|1.75|1.75|1.75|1.75|1.75
;   filamentPricesPerKg,46|46|46|46|46|46
;   filamentDensities,1.75|1.25|1.25|1.25|1.25|1.25
;   useMinPrintHeight,0
;   minPrintHeight,0
;   useMaxPrintHeight,0
;   maxPrintHeight,0
;   useDiaphragm,0
;   diaphragmLayerInterval,20
;   robustSlicing,1
;   mergeAllIntoSolid,0
;   onlyRetractWhenCrossingOutline,1
;   retractBetweenLayers,1
;   useRetractionMinTravel,0
;   retractionMinTravel,3
;   retractWhileWiping,0
;   onlyWipeOutlines,1
;   avoidCrossingOutline,0
;   maxMovementDetourFactor,3
;   toolChangeRetractionDistance,12
;   toolChangeExtraRestartDistance,-0.5
;   toolChangeRetractionSpeed,600
;   externalThinWallType,0
;   internalThinWallType,2
;   thinWallAllowedOverlapPercentage,10
;   singleExtrusionMinLength,1
;   singleExtrusionMinPrintingWidthPercentage,50
;   singleExtrusionMaxPrintingWidthPercentage,200
;   singleExtrusionEndpointExtension,0.2
;   horizontalSizeCompensation,0
G90
M82
M127
M140 S60 T0
M134 T0
M104 S200 T0
M133 T0
G28 ; home all axes
; process Process1
; layer 1, Z = 0.200
M135 T0
G92 E0.0000
G1 E-1.6000 F2000
; feature skirt
; tool H0.200 W0.480
G1 Z0.200 F1000
G1 X77.647 Y75.320 F4800
G1 E0.0000 F2000
G92 E0.0000
G1 X122.353 Y75.320 E1.6059 F1800
G1 X125.680 Y78.647 E1.7749
G1 X125.680 Y115.130 E3.0854
G1 X124.815 Y117.218 E3.1665
G1 X118.217 Y123.815 E3.5017
G1 X116.130 Y124.680 E3.5829
G1 X83.870 Y124.680 E4.7417
G1 X81.783 Y123.815 E4.8228
G1 X75.185 Y117.217 E5.1580
G1 X74.320 Y115.130 E5.2392
G1 X74.320 Y78.647 E6.5497
G1 X77.647 Y75.320 E6.7187
G92 E0.0000
G1 E-1.6000 F2000
G1 X77.846 Y75.800 F4800
G1 E0.0000 F2000
G92 E0.0000
G1 X122.154 Y75.800 E1.5916 F1800
G1 X125.200 Y78.846 E1.7463
G1 X125.200 Y115.034 E3.0462
G1 X124.408 Y116.946 E3.1205
G1 X117.946 Y123.408 E3.4489
G1 X116.034 Y124.200 E3.5232
G1 X83.966 Y124.200 E4.6751
G1 X82.054 Y123.408 E4.7494
G1 X75.592 Y116.946 E5.0777
G1 X74.800 Y115.034 E5.1520
G1 X74.800 Y78.846 E6.4519
G1 X77.846 Y75.800 E6.6067
G92 E0.0000
G1 E-1.6000 F2000
G1 X78.045 Y76.280 F4800
G1 E0.0000 F2000
G92 E0.0000
G1 X121.955 Y76.280 E1.5773 F1800
G1 X124.720 Y79.045 E1.7178
G1 X124.720 Y114.939 E3.0071
G1 X124.001 Y116.674 E3.0745
G1 X117.674 Y123.001 E3.3960
G1 X115.939 Y123.720 E3.4634
G1 X84.061 Y123.720 E4.6085
G1 X82.326 Y123.001 E4.6760
G1 X75.999 Y116.674 E4.9974
G1 X75.280 Y114.939 E5.0649
G1 X75.280 Y79.045 E6.3542
G1 X78.045 Y76.280 E6.4947
G92 E0.0000
G1 E-1.6000 F2000
G1 X78.244 Y76.760 F4800
G1 E0.0000 F2000
G92 E0.0000
G1 X121.756 Y76.760 E1.5630 F1800
G1 X124.240 Y79.244 E1.6892
G1 X124.240 Y114.843 E2.9680
G1 X123.594 Y116.402 E3.0286
G1 X117.402 Y122.595 E3.3431
G1 X115.843 Y123.240 E3.4037
G1 X84.157 Y123.240 E4.5419
G1 X82.598 Y122.595 E4.6025
G1 X76.405 Y116.402 E4.9171
G1 X75.760 Y114.843 E4.9777
G1 X75.760 Y79.244 E6.2565
G1 X78.244 Y76.760 E6.3827
G92 E0.0000
G1 E-1.6000 F2000
; feature inner perimeter
G1 X81.200 Y82.200 F4800
G1 E0.0000 F2000
G92 E0.0000
G1 X118.800 Y82.200 E1.3506 F1350
G1 X118.800 Y113.503 E2.4751
G1 X114.503 Y117.800 E2.6934
G1 X85.497 Y117.800 E3.7353
G1 X81.200 Y113.503 E3.9536
G1 X81.200 Y82.200 E5.0780
G1 X80.720 Y81.720 F4800
G92 E0.0000
G1 X119.280 Y81.720 E1.3851 F1350
G1 X119.280 Y113.702 E2.5339
G1 X114.702 Y118.280 E2.7665
G1 X85.298 Y118.280 E3.8227
G1 X80.720 Y113.702 E4.0553
G1 X80.720 Y81.720 E5.2041
; feature outer perimeter
G1 X80.240 Y81.240 F4800
G92 E0.0000
G1 X119.760 Y81.240 E1.4196 F900
G1 X119.760 Y113.901 E2.5928
G1 X114.901 Y118.760 E2.8397
G1 X85.099 Y118.760 E3.9101
G1 X80.240 Y113.901 E4.1570
G1 X80.240 Y81.240 E5.3302
; feature solid layer
G1 X86.166 Y117.392 F4800
G92 E0.0000
G1 X81.608 Y112.834 E0.2316 F1440
G1 X81.608 Y112.155 E0.2559
G1 X86.845 Y117.392 E0.5220
G1 X87.524 Y117.392 E0.5464
G1 X81.608 Y111.476 E0.8469
G1 X81.608 Y110.797 E0.8713
G1 X88.203 Y117.392 E1.2063
G1 X88.881 Y117.392 E1.2307
G1 X81.608 Y110.119 E1.6002
G1 X81.608 Y109.440 E1.6245
G1 X89.560 Y117.392 E2.0285
G1 X90.239 Y117.392 E2.0529
G1 X81.608 Y108.761 E2.4914
G1 X81.608 Y108.082 E2.5158
G1 X90.918 Y117.392 E2.9887
G1 X91.597 Y117.392 E3.0131
G1 X81.608 Y107.403 E3.5205
G1 X81.608 Y106.724 E3.5449
G1 X92.276 Y117.392 E4.0868
G1 X92.954 Y117.392 E4.1112
G1 X81.608 Y106.046 E4.6876
G1 X81.608 Y105.367 E4.7120
G1 X93.633 Y117.392 E5.3229
G1 X94.312 Y117.392 E5.3472
G1 X81.608 Y104.688 E5.9926
G1 X81.608 Y104.009 E6.0170
G1 X94.991 Y117.392 E6.6968
G1 X95.670 Y117.392 E6.7212
G1 X81.608 Y103.330 E7.4356
G1 X81.608 Y102.651 E7.4600
G1 X96.349 Y117.392 E8.2088
G1 X97.027 Y117.392 E8.2332
G1 X81.608 Y101.973 E9.0165
G1 X81.608 Y101.294 E9.0408
G1 X97.706 Y117.392 E9.8586
G1 X98.385 Y117.392 E9.8830
G1 X81.608 Y100.615 E10.7353
G1 X81.608 Y99.936 E10.7597
G1 X99.064 Y117.392 E11.6464
G1 X99.743 Y117.392 E11.6708
G1 X81.608 Y99.257 E12.5920
G1 X81.608 Y98.579 E12.6164
G1 X100.421 Y117.392 E13.5722
G1 X101.100 Y117.392 E13.5965
G1 X81.608 Y97.900 E14.5867
G1 X81.608 Y97.221 E14.6111
G1 X101.779 Y117.392 E15.6358
G1 X102.458 Y117.392 E15.6602
G1 X81.608 Y96.542 E16.7194
G1 X81.608 Y95.863 E16.7438
G1 X103.137 Y117.392 E17.8374
G1 X103.816 Y117.392 E17.8618
G1 X81.608 Y95.184 E18.9900
G1 X81.608 Y94.506 E19.0143
G1 X104.494 Y117.392 E20.1770
G1 X105.173 Y117.392 E20.2013
G1 X81.608 Y93.827 E21.3985
G1 X81.608 Y93.148 E21.4228
G1 X105.852 Y117.392 E22.6544
G1 X106.531 Y117.392 E22.6788
G1 X81.608 Y92.469 E23.9449
G1 X81.608 Y91.790 E23.9693
G1 X107.210 Y117.392 E25.2699
G1 X107.889 Y117.392 E25.2942
G1 X81.608 Y91.111 E26.6293
G1 X81.608 Y90.433 E26.6537
G1 X108.567 Y117.392 E28.0232
G1 X109.246 Y117.392 E28.0476
G1 X81.608 Y89.754 E29.4516
G1 X81.608 Y89.075 E29.4760
G1 X109.925 Y117.392 E30.9145
G1 X110.604 Y117.392 E30.9389
G1 X81.608 Y88.396 E32.4119
G1 X81.608 Y87.717 E32.4362
G1 X111.283 Y117.392 E33.9437
G1 X111.961 Y117.392 E33.9681
G1 X81.608 Y87.039 E35.5100
G1 X81.608 Y86.360 E35.5344
G1 X112.640 Y117.392 E37.1109
G1 X113.319 Y117.392 E37.1352
G1 X81.608 Y85.681 E38.7462
G1 X81.608 Y85.002 E38.7706
G1 X113.998 Y117.392 E40.4160
G1 X114.334 Y117.392 E40.4280
G1 X114.505 Y117.221 E40.4367
G1 X81.608 Y84.323 E42.1079
G1 X81.608 Y83.644 E42.1323
G1 X114.845 Y116.881 E43.8207
G1 X115.184 Y116.542 E43.8380
G1 X81.608 Y82.966 E45.5436
G1 X81.608 Y82.608 E45.5565
G1 X81.929 Y82.608 E45.5680
G1 X115.524 Y116.202 E47.2746
G1 X115.863 Y115.863 E47.2919
G1 X82.608 Y82.608 E48.9812
G1 X83.287 Y82.608 E49.0056
G1 X116.202 Y115.524 E50.6777
G1 X116.542 Y115.184 E50.6949
G1 X83.966 Y82.608 E52.3498
G1 X84.644 Y82.608 E52.3742
G1 X116.881 Y114.845 E54.0118
G1 X117.221 Y114.505 E54.0290
G1 X85.323 Y82.608 E55.6494
G1 X86.002 Y82.608 E55.6738
G1 X117.560 Y114.166 E57.2770
G1 X117.899 Y113.827 E57.2942
G1 X86.681 Y82.608 E58.8801
G1 X87.360 Y82.608 E58.9045
G1 X118.239 Y113.487 E60.4731
G1 X118.392 Y113.334 E60.4809
G1 X118.392 Y112.961 E60.4943
G1 X88.039 Y82.608 E62.0362
G1 X88.717 Y82.608 E62.0606
G1 X118.392 Y112.283 E63.5681
G1 X118.392 Y111.604 E63.5925
G1 X89.396 Y82.608 E65.0655
G1 X90.075 Y82.608 E65.0898
G1 X118.392 Y110.925 E66.5283
G1 X118.392 Y110.246 E66.5527
G1 X90.754 Y82.608 E67.9567
G1 X91.433 Y82.608 E67.9811
G1 X118.392 Y109.567 E69.3506
G1 X118.392 Y108.888 E69.3750
G1 X92.112 Y82.608 E70.7101
G1 X92.790 Y82.608 E70.7345
G1 X118.392 Y108.210 E72.0350
G1 X118.392 Y107.531 E72.0594
G1 X93.469 Y82.608 E73.3255
G1 X94.148 Y82.608 E73.3499
G1 X118.392 Y106.852 E74.5815
G1 X118.392 Y106.173 E74.6058
G1 X94.827 Y82.608 E75.8029
G1 X95.506 Y82.608 E75.8273
G1 X118.392 Y105.494 E76.9900
G1 X118.392 Y104.816 E77.0143
G1 X96.184 Y82.608 E78.1425
G1 X96.863 Y82.608 E78.1669
G1 X118.392 Y104.137 E79.2605
G1 X118.392 Y103.458 E79.2849
G1 X97.542 Y82.608 E80.3441
G1 X98.221 Y82.608 E80.3685
G1 X118.392 Y102.779 E81.3931
G1 X118.392 Y102.100 E81.4175
G1 X98.900 Y82.608 E82.4077
G1 X99.579 Y82.608 E82.4321
G1 X118.392 Y101.421 E83.3878
G1 X118.392 Y100.743 E83.4122
G1 X100.257 Y82.608 E84.3335
G1 X100.936 Y82.608 E84.3578
G1 X118.392 Y100.064 E85.2446
G1 X118.392 Y99.385 E85.2690
G1 X101.615 Y82.608 E86.1212
G1 X102.294 Y82.608 E86.1456
G1 X118.392 Y98.706 E86.9634
G1 X118.392 Y98.027 E86.9878
G1 X102.973 Y82.608 E87.7711
G1 X103.652 Y82.608 E87.7955
G1 X118.392 Y97.348 E88.5443
G1 X118.392 Y96.670 E88.5687
G1 X104.330 Y82.608 E89.2830
G1 X105.009 Y82.608 E89.3074
G1 X118.392 Y95.991 E89.9872
G1 X118.392 Y95.312 E90.0116
G1 X105.688 Y82.608 E90.6570
G1 X106.367 Y82.608 E90.6814
G1 X118.392 Y94.633 E91.2922
G1 X118.392 Y93.954 E91.3166
G1 X107.046 Y82.608 E91.8930
G1 X107.724 Y82.608 E91.9174
G1 X118.392 Y93.276 E92.4593
G1 X118.392 Y92.597 E92.4837
G1 X108.403 Y82.608 E92.9911
G1 X109.082 Y82.608 E93.0155
G1 X118.392 Y91.918 E93.4885
G1 X118.392 Y91.239 E93.5128
G1 X109.761 Y82.608 E93.9513
G1 X110.440 Y82.608 E93.9757
G1 X118.392 Y90.560 E94.3797
G1 X118.392 Y89.881 E94.4040
G1 X111.119 Y82.608 E94.7735
G1 X111.797 Y82.608 E94.7979
G1 X118.392 Y89.203 E95.1329
G1 X118.392 Y88.524 E95.1573
G1 X112.476 Y82.608 E95.4578
G1 X113.155 Y82.608 E95.4822
G1 X118.392 Y87.845 E95.7482
G1 X118.392 Y87.166 E95.7726
G1 X113.834 Y82.608 E96.0042
G1 X114.513 Y82.608 E96.0286
G1 X118.392 Y86.487 E96.2256
G1 X118.392 Y85.808 E96.2500
G1 X115.191 Y82.608 E96.4126
G1 X115.870 Y82.608 E96.4370
G1 X118.392 Y85.130 E96.5651
G1 X118.392 Y84.451 E96.5895
G1 X116.549 Y82.608 E96.6831
G1 X117.228 Y82.608 E96.7075
G1 X118.392 Y83.772 E96.7666
G1 X118.392 Y83.093 E96.7910
G1 X117.907 Y82.608 E96.8156
G92 E0.0000
G1 E-1.6000 F2000
; layer 2, Z = 0.400
M126 S255
; feature inner perimeter
G1 Z0.400 F1000
G1 X118.800 Y82.200 F4800
G1 E0.0000 F2000
G92 E0.0000
G1 X118.800 Y113.503 E1.1244 F2700
G1 X114.503 Y117.800 E1.3427
G1 X85.497 Y117.800 E2.3846
G1 X81.200 Y113.503 E2.6029
G1 X81.200 Y82.200 E3.7274
G1 X118.800 Y82.200 E5.0780
G1 X119.280 Y81.720 F4800
G92 E0.0000
G1 X119.280 Y113.702 E1.1488 F2700
G1 X114.702 Y118.280 E1.3814
G1 X85.298 Y118.280 E2.4376
G1 X80.720 Y113.702 E2.6702
G1 X80.720 Y81.720 E3.8190
G1 X119.280 Y81.720 E5.2041
; feature outer perimeter
G1 X119.760 Y81.240 F4800
G92 E0.0000
G1 X119.760 Y113.901 E1.1732 F1800
G1 X114.901 Y118.760 E1.4201
G1 X85.099 Y118.760 E2.4905
G1 X80.240 Y113.901 E2.7374
G1 X80.240 Y81.240 E3.9106
G1 X119.760 Y81.240 E5.3302
; feature solid layer
G1 X118.392 Y112.834 F4800
G92 E0.0000
G1 X113.834 Y117.392 E0.2316 F2880
G1 X113.155 Y117.392 E0.2559
G1 X118.392 Y112.155 E0.5220
G1 X118.392 Y111.476 E0.5464
G1 X112.476 Y117.392 E0.8469
G1 X111.797 Y117.392 E0.8713
G1 X118.392 Y110.797 E1.2063
G1 X118.392 Y110.119 E1.2307
G1 X111.119 Y117.392 E1.6001
G1 X110.440 Y117.392 E1.6245
G1 X118.392 Y109.440 E2.0285
G1 X118.392 Y108.761 E2.0529
G1 X109.761 Y117.392 E2.4913
G1 X109.082 Y117.392 E2.5157
G1 X118.392 Y108.082 E2.9887
G1 X118.392 Y107.403 E3.0130
G1 X108.403 Y117.392 E3.5205
G1 X107.724 Y117.392 E3.5449
G1 X118.392 Y106.724 E4.0868
G1 X118.392 Y106.046 E4.1112
G1 X107.046 Y117.392 E4.6875
G1 X106.367 Y117.392 E4.7119
G1 X118.392 Y105.367 E5.3228
