; G-Code generated by Simplify3D(R) Version 4.1.2
; Jan 11, 2020 at 10:32:45 AM
; Settings Summary
;   processName,Process1
;   applyToModels,soporteServo
;   profileName,PRUSA TECNOBOT (modified)
;   profileVersion,2020-01-10 15:13:17
;   baseProfile,Default (modified)
;   printMaterial,PLA
;   printQuality,Medium
;   printExtruders,
;   extruderName,Primary Extruder
;   extruderToolheadNumber,0
;   extruderDiameter,0.4
;   extruderAutoWidth,1
;   extruderWidth,0.48
;   extrusionMultiplier,0.9
;   extruderUseRetract,1
;   extruderRetractionDistance,1.6
;   extruderExtraRestartDistance,0
;   extruderRetractionZLift,0
;   extruderRetractionSpeed,2000
;   extruderUseCoasting,0
;   extruderCoastingDistance,0.2
;   extruderUseWipe,0
;   extruderWipeDistance,5
;   primaryExtruder,0
;   layerHeight,0.2
;   topSolidLayers,8
;   bottomSolidLayers,5
;   perimeterOutlines,3
;   printPerimetersInsideOut,1
;   startPointOption,2
;   startPointOriginX,0
;   startPointOriginY,0
;   sequentialIslands,0
;   spiralVaseMode,0
;   firstLayerHeightPercentage,100
;   firstLayerWidthPercentage,100
;   firstLayerUnderspeed,0.5
;   useRaft,0
;   raftExtruder,0
;   raftTopLayers,3
;   raftBaseLayers,2
;   raftOffset,3
;   raftSeparationDistance,0.14
;   raftTopInfill,100
;   aboveRaftSpeedMultiplier,0.3
;   useSkirt,1
;   skirtExtruder,0
;   skirtLayers,1
;   skirtOutlines,4
;   skirtOffset,4
;   usePrimePillar,0
;   primePillarExtruder,999
;   primePillarWidth,12
;   primePillarLocation,7
;   primePillarSpeedMultiplier,1
;   useOozeShield,0
;   oozeShieldExtruder,999
;   oozeShieldOffset,2
;   oozeShieldOutlines,1
;   oozeShieldSidewallShape,1
;   oozeShieldSidewallAngle,30
;   oozeShieldSpeedMultiplier,1
;   infillExtruder,0
;   internalInfillPattern,Full Honeycomb
;   externalInfillPattern,Rectilinear
;   infillPercentage,16
;   outlineOverlapPercentage,15
;   infillExtrusionWidthPercentage,100
;   minInfillLength,5
;   infillLayerInterval,1
;   internalInfillAngles,0,120,-120
;   overlapInternalInfillAngles,0
;   externalInfillAngles,45,-45
;   generateSupport,1
;   supportExtruder,0
;   supportInfillPercentage,30
;   supportExtraInflation,0
;   supportBaseLayers,0
;   denseSupportExtruder,0
;   denseSupportLayers,0
;   denseSupportInfillPercentage,70
;   supportLayerInterval,1
;   supportHorizontalPartOffset,0.3
;   supportUpperSeparationLayers,1
;   supportLowerSeparationLayers,1
;   supportType,0
;   supportGridSpacing,4
;   maxOverhangAngle,45
;   supportAngles,0
;   temperatureName,Primary Extruder,cama Caliente
;   temperatureNumber,0,1
;   temperatureSetpointCount,1,2
;   temperatureSetpointLayers,1,1,8
;   temperatureSetpointTemperatures,200,60,50
;   temperatureStabilizeAtStartup,1,1
;   temperatureHeatedBed,0,1
;   fanLayers,1,2
;   fanSpeeds,0,100
;   blipFanToFullPower,0
;   adjustSpeedForCooling,1
;   minSpeedLayerTime,15
;   minCoolingSpeedSlowdown,20
;   increaseFanForCooling,0
;   minFanLayerTime,45
;   maxCoolingFanSpeed,100
;   increaseFanForBridging,0
;   bridgingFanSpeed,100
;   use5D,1
;   relativeEdistances,0
;   allowEaxisZeroing,1
;   independentExtruderAxes,0
;   includeM10123,0
;   stickySupport,1
;   applyToolheadOffsets,0
;   gcodeXoffset,0
;   gcodeYoffset,0
;   gcodeZoffset,0
;   overrideMachineDefinition,0
;   machineTypeOverride,0
;   strokeXoverride,200
;   strokeYoverride,200
;   strokeZoverride,200
;   originOffsetXoverride,0
;   originOffsetYoverride,0
;   originOffsetZoverride,0
;   homeXdirOverride,-1
;   homeYdirOverride,-1
;   homeZdirOverride,-1
;   flipXoverride,1
;   flipYoverride,-1
;   flipZoverride,1
;   toolheadOffsets,0,0|0,0|0,0|0,0|0,0|0,0
;   overrideFirmwareConfiguration,0
;   firmwareTypeOverride,RepRap (Marlin/Repetier/Sprinter)
;   GPXconfigOverride,r2
;   baudRateOverride,115200
;   overridePrinterModels,0
;   printerModelsOverride
;   startingGcode,G28 ; home all axes
;   layerChangeGcode,
;   retractionGcode,
;   toolChangeGcode,
;   endingGcode,M104 S0 ; turn off extruder,M140 S0 ; turn off bed,G28 X0 ; home axix x,M84 ; disable motors
;   exportFileFormat,gcode
;   celebration,0
;   celebrationSong,Random Song
;   postProcessing,
;   defaultSpeed,3600
;   outlineUnderspeed,0.5
;   solidInfillUnderspeed,0.8
;   supportUnderspeed,0.8
;   rapidXYspeed,4800
;   rapidZspeed,1000
;   minBridgingArea,50
;   bridgingExtraInflation,0
;   bridgingExtrusionMultiplier,1
;   bridgingSpeedMultiplier,1
;   useFixedBridgingAngle,0
;   fixedBridgingAngle,0
;   applyBridgingToPerimeters,0
;   filamentDiameters,1.75|1.75|1.75|1.75|1.75|1.75
;   filamentPricesPerKg,46|46|46|46|46|46
;   filamentDensities,1.75|1.25|1.25|1.25|1.25|1.25
;   useMinPrintHeight,0
;   minPrintHeight,0
;   useMaxPrintHeight,0
;   maxPrintHeight,0
;   useDiaphragm,0
;   diaphragmLayerInterval,20
;   robustSlicing,1
;   mergeAllIntoSolid,0
;   onlyRetractWhenCrossingOutline,1
;   retractBetweenLayers,1
;   useRetractionMinTravel,0
;   retractionMinTravel,3
;   retractWhileWiping,0
;   onlyWipeOutlines,1
;   avoidCrossingOutline,0
;   maxMovementDetourFactor,3
;   toolChangeRetractionDistance,12
;   toolChangeExtraRestartDistance,-0.5
;   toolChangeRetractionSpeed,600
;   externalThinWallType,0
;   internalThinWallType,2
;   thinWallAllowedOverlapPercentage,10
;   singleExtrusionMinLength,1
;   singleExtrusionMinPrintingWidthPercentage,50
;   singleExtrusionMaxPrintingWidthPercentage,200
;   singleExtrusionEndpointExtension,0.2
;   horizontalSizeCompensation,0
G90
M82
M127
M140 S60 T0
M134 T0
M104 S200 T0
M133 T0
G28 ; home all axes
; process Process1
; layer 1, Z = 0.200
M135 T0
G92 E0.0000
G1 E-1.6000 F2000
; feature skirt
; tool H0.200 W0.480
G1 Z0.200 F1000
G1 X73.647 Y75.320 F4800
G1 E0.0000 F2000
G92 E0.0000
G1 X126.353 Y75.320 E1.8932 F1800
G1 X129.680 Y78.647 E2.0623
G1 X129.680 Y121.353 E3.5963
G1 X126.353 Y124.680 E3.7653
G1 X113.647 Y124.680 E4.2217
G1 X110.320 Y121.353 E4.3907
G1 X110.320 Y94.680 E5.3488
G1 X73.647 Y94.680 E6.6661
G1 X70.320 Y91.353 E6.8352
G1 X70.320 Y78.647 E7.2916
G1 X73.647 Y75.320 E7.4606
G92 E0.0000
G1 E-1.6000 F2000
G1 X73.846 Y75.800 F4800
G1 E0.0000 F2000
G92 E0.0000
G1 X126.154 Y75.800 E1.8789 F1800
G1 X129.200 Y78.846 E2.0337
G1 X129.200 Y121.154 E3.5534
G1 X126.154 Y124.200 E3.7082
G1 X113.846 Y124.200 E4.1503
G1 X110.800 Y121.154 E4.3050
G1 X110.800 Y94.200 E5.2732
G1 X73.846 Y94.200 E6.6006
G1 X70.800 Y91.154 E6.7554
G1 X70.800 Y78.846 E7.1975
G1 X73.846 Y75.800 E7.3522
G92 E0.0000
G1 E-1.6000 F2000
G1 X74.045 Y76.280 F4800
G1 E0.0000 F2000
G92 E0.0000
G1 X125.955 Y76.280 E1.8647 F1800
G1 X128.720 Y79.045 E2.0051
G1 X128.720 Y120.955 E3.5106
G1 X125.955 Y123.720 E3.6510
G1 X114.045 Y123.720 E4.0789
G1 X111.280 Y120.955 E4.2193
G1 X111.280 Y93.720 E5.1976
G1 X74.045 Y93.720 E6.5351
G1 X71.280 Y90.955 E6.6756
G1 X71.280 Y79.045 E7.1034
G1 X74.045 Y76.280 E7.2439
G92 E0.0000
G1 E-1.6000 F2000
G1 X74.244 Y76.760 F4800
G1 E0.0000 F2000
G92 E0.0000
G1 X125.756 Y76.760 E1.8504 F1800
G1 X128.240 Y79.244 E1.9766
G1 X128.240 Y120.756 E3.4677
G1 X125.756 Y123.240 E3.5939
G1 X114.244 Y123.240 E4.0074
G1 X111.760 Y120.756 E4.1336
G1 X111.760 Y93.240 E5.1220
G1 X74.244 Y93.240 E6.4696
G1 X71.760 Y90.756 E6.5958
G1 X71.760 Y79.244 E7.0094
G1 X74.244 Y76.760 E7.1355
G92 E0.0000
G1 E-1.6000 F2000
; feature inner perimeter
G1 X77.200 Y82.200 F4800
G1 E0.0000 F2000
G92 E0.0000
G1 X122.800 Y82.200 E1.6380 F1350
G1 X122.800 Y117.800 E2.9168
G1 X117.200 Y117.800 E3.1179
G1 X117.200 Y87.800 E4.1956
G1 X77.200 Y87.800 E5.6324
G1 X77.200 Y82.200 E5.8336
G1 X76.720 Y81.720 F4800
G92 E0.0000
G1 X123.280 Y81.720 E1.6725 F1350
G1 X123.280 Y118.280 E2.9857
G1 X116.720 Y118.280 E3.2214
G1 X116.720 Y88.280 E4.2990
G1 X76.720 Y88.280 E5.7359
G1 X76.720 Y81.720 E5.9715
; feature outer perimeter
G1 X76.240 Y81.240 F4800
G92 E0.0000
G1 X123.760 Y81.240 E1.7070 F900
G1 X123.760 Y118.760 E3.0547
G1 X116.240 Y118.760 E3.3248
G1 X116.240 Y88.760 E4.4025
G1 X76.240 Y88.760 E5.8393
G1 X76.240 Y81.240 E6.1094
; feature solid layer
G1 X77.888 Y87.392 F4800
G92 E0.0000
G1 X77.608 Y87.112 E0.0142 F1440
G1 X77.608 Y86.433 E0.0386
G1 X78.567 Y87.392 E0.0874
G1 X79.246 Y87.392 E0.1118
G1 X77.608 Y85.754 E0.1950
G1 X77.608 Y85.075 E0.2194
G1 X79.925 Y87.392 E0.3371
G1 X80.604 Y87.392 E0.3614
G1 X77.608 Y84.396 E0.5136
G1 X77.608 Y83.717 E0.5380
G1 X81.283 Y87.392 E0.7247
G1 X81.961 Y87.392 E0.7491
G1 X77.608 Y83.039 E0.9702
G1 X77.608 Y82.608 E0.9857
G1 X77.856 Y82.608 E0.9946
G1 X82.640 Y87.392 E1.2376
G1 X83.319 Y87.392 E1.2620
G1 X78.535 Y82.608 E1.5050
G1 X79.214 Y82.608 E1.5294
G1 X83.998 Y87.392 E1.7724
G1 X84.677 Y87.392 E1.7968
G1 X79.893 Y82.608 E2.0399
G1 X80.572 Y82.608 E2.0642
G1 X85.356 Y87.392 E2.3073
G1 X86.034 Y87.392 E2.3317
G1 X81.250 Y82.608 E2.5747
G1 X81.929 Y82.608 E2.5991
G1 X86.713 Y87.392 E2.8421
G1 X87.392 Y87.392 E2.8665
G1 X82.608 Y82.608 E3.1095
G1 X83.287 Y82.608 E3.1339
G1 X88.071 Y87.392 E3.3769
G1 X88.750 Y87.392 E3.4013
G1 X83.966 Y82.608 E3.6443
G1 X84.644 Y82.608 E3.6687
G1 X89.428 Y87.392 E3.9117
G1 X90.107 Y87.392 E3.9361
G1 X85.323 Y82.608 E4.1791
G1 X86.002 Y82.608 E4.2035
G1 X90.786 Y87.392 E4.4466
G1 X91.465 Y87.392 E4.4709
G1 X86.681 Y82.608 E4.7140
G1 X87.360 Y82.608 E4.7383
G1 X92.144 Y87.392 E4.9814
G1 X92.823 Y87.392 E5.0058
G1 X88.039 Y82.608 E5.2488
G1 X88.717 Y82.608 E5.2732
G1 X93.501 Y87.392 E5.5162
G1 X94.180 Y87.392 E5.5406
G1 X89.396 Y82.608 E5.7836
G1 X90.075 Y82.608 E5.8080
G1 X94.859 Y87.392 E6.0510
G1 X95.538 Y87.392 E6.0754
G1 X90.754 Y82.608 E6.3184
G1 X91.433 Y82.608 E6.3428
G1 X96.217 Y87.392 E6.5858
G1 X96.896 Y87.392 E6.6102
G1 X92.112 Y82.608 E6.8532
G1 X92.790 Y82.608 E6.8776
G1 X97.574 Y87.392 E7.1207
G1 X98.253 Y87.392 E7.1450
G1 X93.469 Y82.608 E7.3881
G1 X94.148 Y82.608 E7.4125
G1 X98.932 Y87.392 E7.6555
G1 X99.611 Y87.392 E7.6799
G1 X94.827 Y82.608 E7.9229
G1 X95.506 Y82.608 E7.9473
G1 X100.290 Y87.392 E8.1903
G1 X100.968 Y87.392 E8.2147
G1 X96.184 Y82.608 E8.4577
G1 X96.863 Y82.608 E8.4821
G1 X101.647 Y87.392 E8.7251
G1 X102.326 Y87.392 E8.7495
G1 X97.542 Y82.608 E8.9925
G1 X98.221 Y82.608 E9.0169
G1 X103.005 Y87.392 E9.2599
G1 X103.684 Y87.392 E9.2843
G1 X98.900 Y82.608 E9.5274
G1 X99.579 Y82.608 E9.5517
G1 X104.363 Y87.392 E9.7948
G1 X105.041 Y87.392 E9.8191
G1 X100.257 Y82.608 E10.0622
G1 X100.936 Y82.608 E10.0866
G1 X105.720 Y87.392 E10.3296
G1 X106.399 Y87.392 E10.3540
G1 X101.615 Y82.608 E10.5970
G1 X102.294 Y82.608 E10.6214
G1 X107.078 Y87.392 E10.8644
G1 X107.757 Y87.392 E10.8888
G1 X102.973 Y82.608 E11.1318
G1 X103.652 Y82.608 E11.1562
G1 X108.436 Y87.392 E11.3992
G1 X109.114 Y87.392 E11.4236
G1 X104.330 Y82.608 E11.6666
G1 X105.009 Y82.608 E11.6910
G1 X109.793 Y87.392 E11.9340
G1 X110.472 Y87.392 E11.9584
G1 X105.688 Y82.608 E12.2015
G1 X106.367 Y82.608 E12.2258
G1 X111.151 Y87.392 E12.4689
G1 X111.830 Y87.392 E12.4933
G1 X107.046 Y82.608 E12.7363
G1 X107.724 Y82.608 E12.7607
G1 X112.508 Y87.392 E13.0037
G1 X113.187 Y87.392 E13.0281
G1 X108.403 Y82.608 E13.2711
G1 X109.082 Y82.608 E13.2955
G1 X113.866 Y87.392 E13.5385
G1 X114.545 Y87.392 E13.5629
G1 X109.761 Y82.608 E13.8059
G1 X110.440 Y82.608 E13.8303
G1 X115.224 Y87.392 E14.0733
G1 X115.903 Y87.392 E14.0977
G1 X111.119 Y82.608 E14.3407
G1 X111.797 Y82.608 E14.3651
G1 X116.581 Y87.392 E14.6082
G1 X117.260 Y87.392 E14.6325
G1 X112.476 Y82.608 E14.8756
G1 X113.155 Y82.608 E14.9000
G1 X122.392 Y91.845 E15.3692
G1 X122.392 Y91.166 E15.3936
G1 X113.834 Y82.608 E15.8283
G1 X114.513 Y82.608 E15.8527
G1 X122.392 Y90.487 E16.2530
G1 X122.392 Y89.809 E16.2774
G1 X115.191 Y82.608 E16.6431
G1 X115.870 Y82.608 E16.6675
G1 X122.392 Y89.130 E16.9988
G1 X122.392 Y88.451 E17.0232
G1 X116.549 Y82.608 E17.3200
G1 X117.228 Y82.608 E17.3444
G1 X122.392 Y87.772 E17.6067
G1 X122.392 Y87.093 E17.6311
G1 X117.907 Y82.608 E17.8590
G1 X118.586 Y82.608 E17.8834
G1 X122.392 Y86.414 E18.0767
G1 X122.392 Y85.736 E18.1011
G1 X119.264 Y82.608 E18.2600
G1 X119.943 Y82.608 E18.2844
G1 X122.392 Y85.057 E18.4088
G1 X122.392 Y84.378 E18.4332
G1 X120.622 Y82.608 E18.5231
G1 X121.301 Y82.608 E18.5475
G1 X122.392 Y83.699 E18.6029
G1 X122.392 Y83.020 E18.6273
G1 X121.980 Y82.608 E18.6482
G1 X117.608 Y87.740 F4800
G92 E0.0000
G1 X122.392 Y92.524 E0.2430 F1440
G1 X122.392 Y93.203 E0.2674
G1 X117.608 Y88.419 E0.5104
G1 X117.608 Y89.097 E0.5348
G1 X122.392 Y93.881 E0.7778
G1 X122.392 Y94.560 E0.8022
G1 X117.608 Y89.776 E1.0453
G1 X117.608 Y90.455 E1.0696
G1 X122.392 Y95.239 E1.3127
G1 X122.392 Y95.918 E1.3371
G1 X117.608 Y91.134 E1.5801
G1 X117.608 Y91.813 E1.6045
G1 X122.392 Y96.597 E1.8475
G1 X122.392 Y97.276 E1.8719
G1 X117.608 Y92.492 E2.1149
G1 X117.608 Y93.170 E2.1393
G1 X122.392 Y97.954 E2.3823
G1 X122.392 Y98.633 E2.4067
G1 X117.608 Y93.849 E2.6497
G1 X117.608 Y94.528 E2.6741
G1 X122.392 Y99.312 E2.9171
G1 X122.392 Y99.991 E2.9415
G1 X117.608 Y95.207 E3.1845
G1 X117.608 Y95.886 E3.2089
G1 X122.392 Y100.670 E3.4520
G1 X122.392 Y101.348 E3.4763
G1 X117.608 Y96.564 E3.7194
G1 X117.608 Y97.243 E3.7437
G1 X122.392 Y102.027 E3.9868
G1 X122.392 Y102.706 E4.0112
G1 X117.608 Y97.922 E4.2542
G1 X117.608 Y98.601 E4.2786
G1 X122.392 Y103.385 E4.5216
G1 X122.392 Y104.064 E4.5460
G1 X117.608 Y99.280 E4.7890
G1 X117.608 Y99.959 E4.8134
G1 X122.392 Y104.743 E5.0564
G1 X122.392 Y105.421 E5.0808
G1 X117.608 Y100.637 E5.3238
G1 X117.608 Y101.316 E5.3482
G1 X122.392 Y106.100 E5.5912
G1 X122.392 Y106.779 E5.6156
G1 X117.608 Y101.995 E5.8586
G1 X117.608 Y102.674 E5.8830
G1 X122.392 Y107.458 E6.1261
G1 X122.392 Y108.137 E6.1504
G1 X117.608 Y103.353 E6.3935
G1 X117.608 Y104.032 E6.4179
G1 X122.392 Y108.816 E6.6609
G1 X122.392 Y109.494 E6.6853
G1 X117.608 Y104.710 E6.9283
G1 X117.608 Y105.389 E6.9527
G1 X122.392 Y110.173 E7.1957
G1 X122.392 Y110.852 E7.2201
G1 X117.608 Y106.068 E7.4631
G1 X117.608 Y106.747 E7.4875
G1 X122.392 Y111.531 E7.7305
G1 X122.392 Y112.210 E7.7549
G1 X117.608 Y107.426 E7.9979
G1 X117.608 Y108.104 E8.0223
G1 X122.392 Y112.888 E8.2653
G1 X122.392 Y113.567 E8.2897
G1 X117.608 Y108.783 E8.5328
G1 X117.608 Y109.462 E8.5571
G1 X122.392 Y114.246 E8.8002
G1 X122.392 Y114.925 E8.8246
G1 X117.608 Y110.141 E9.0676
G1 X117.608 Y110.820 E9.0920
G1 X122.392 Y115.604 E9.3350
G1 X122.392 Y116.283 E9.3594
G1 X117.608 Y111.499 E9.6024
G1 X117.608 Y112.177 E9.6268
G1 X122.392 Y116.961 E9.8698
G1 X122.392 Y117.392 E9.8853
G1 X122.144 Y117.392 E9.8942
G1 X117.608 Y112.856 E10.1246
G1 X117.608 Y113.535 E10.1490
G1 X121.465 Y117.392 E10.3449
G1 X120.786 Y117.392 E10.3693
G1 X117.608 Y114.214 E10.5308
G1 X117.608 Y114.893 E10.5551
G1 X120.107 Y117.392 E10.6821
G1 X119.428 Y117.392 E10.7065
G1 X117.608 Y115.572 E10.7990
G1 X117.608 Y116.250 E10.8234
G1 X118.750 Y117.392 E10.8814
G1 X118.071 Y117.392 E10.9057
G1 X117.608 Y116.929 E10.9292
G92 E0.0000
G1 E-1.6000 F2000
; layer 2, Z = 0.400
M126 S255
; feature inner perimeter
G1 Z0.400 F1000
G1 X117.200 Y117.800 F4800
G1 E0.0000 F2000
G92 E0.0000
G1 X117.200 Y87.800 E1.0776 F2700
G1 X77.200 Y87.800 E2.5145
G1 X77.200 Y82.200 E2.7156
G1 X122.800 Y82.200 E4.3536
G1 X122.800 Y117.800 E5.6324
G1 X117.200 Y117.800 E5.8336
G1 X116.720 Y118.280 F4800
G92 E0.0000
G1 X116.720 Y88.280 E1.0776 F2700
G1 X76.720 Y88.280 E2.5145
G1 X76.720 Y81.720 E2.7501
G1 X123.280 Y81.720 E4.4226
G1 X123.280 Y118.280 E5.7359
G1 X116.720 Y118.280 E5.9715
; feature outer perimeter
G1 X116.240 Y118.760 F4800
G92 E0.0000
G1 X116.240 Y88.760 E1.0776 F1800
G1 X76.240 Y88.760 E2.5145
G1 X76.240 Y81.240 E2.7846
G1 X123.760 Y81.240 E4.4916
