; G-Code generated by Simplify3D(R) Version 4.1.2
; Jan 11, 2020 at 1:56:23 PM
; Settings Summary
;   processName,Process1
;   applyToModels,transmisor
;   profileName,PRUSA TECNOBOT (modified)
;   profileVersion,2020-01-10 15:13:17
;   baseProfile,Default (modified)
;   printMaterial,PLA
;   printQuality,Medium
;   printExtruders,
;   extruderName,Primary Extruder
;   extruderToolheadNumber,0
;   extruderDiameter,0.4
;   extruderAutoWidth,1
;   extruderWidth,0.48
;   extrusionMultiplier,0.9
;   extruderUseRetract,1
;   extruderRetractionDistance,1.6
;   extruderExtraRestartDistance,0
;   extruderRetractionZLift,0
;   extruderRetractionSpeed,2000
;   extruderUseCoasting,0
;   extruderCoastingDistance,0.2
;   extruderUseWipe,0
;   extruderWipeDistance,5
;   primaryExtruder,0
;   layerHeight,0.2
;   topSolidLayers,8
;   bottomSolidLayers,5
;   perimeterOutlines,3
;   printPerimetersInsideOut,1
;   startPointOption,2
;   startPointOriginX,0
;   startPointOriginY,0
;   sequentialIslands,0
;   spiralVaseMode,0
;   firstLayerHeightPercentage,100
;   firstLayerWidthPercentage,100
;   firstLayerUnderspeed,0.5
;   useRaft,0
;   raftExtruder,0
;   raftTopLayers,3
;   raftBaseLayers,2
;   raftOffset,3
;   raftSeparationDistance,0.14
;   raftTopInfill,100
;   aboveRaftSpeedMultiplier,0.3
;   useSkirt,1
;   skirtExtruder,0
;   skirtLayers,1
;   skirtOutlines,4
;   skirtOffset,4
;   usePrimePillar,0
;   primePillarExtruder,999
;   primePillarWidth,12
;   primePillarLocation,7
;   primePillarSpeedMultiplier,1
;   useOozeShield,0
;   oozeShieldExtruder,999
;   oozeShieldOffset,2
;   oozeShieldOutlines,1
;   oozeShieldSidewallShape,1
;   oozeShieldSidewallAngle,30
;   oozeShieldSpeedMultiplier,1
;   infillExtruder,0
;   internalInfillPattern,Full Honeycomb
;   externalInfillPattern,Rectilinear
;   infillPercentage,16
;   outlineOverlapPercentage,15
;   infillExtrusionWidthPercentage,100
;   minInfillLength,5
;   infillLayerInterval,1
;   internalInfillAngles,0,120,-120
;   overlapInternalInfillAngles,0
;   externalInfillAngles,45,-45
;   generateSupport,0
;   supportExtruder,0
;   supportInfillPercentage,30
;   supportExtraInflation,0
;   supportBaseLayers,0
;   denseSupportExtruder,0
;   denseSupportLayers,0
;   denseSupportInfillPercentage,70
;   supportLayerInterval,1
;   supportHorizontalPartOffset,0.3
;   supportUpperSeparationLayers,1
;   supportLowerSeparationLayers,1
;   supportType,0
;   supportGridSpacing,4
;   maxOverhangAngle,45
;   supportAngles,0
;   temperatureName,Primary Extruder,cama Caliente
;   temperatureNumber,0,1
;   temperatureSetpointCount,1,2
;   temperatureSetpointLayers,1,1,8
;   temperatureSetpointTemperatures,200,60,50
;   temperatureStabilizeAtStartup,1,1
;   temperatureHeatedBed,0,1
;   fanLayers,1,2
;   fanSpeeds,0,100
;   blipFanToFullPower,0
;   adjustSpeedForCooling,1
;   minSpeedLayerTime,15
;   minCoolingSpeedSlowdown,20
;   increaseFanForCooling,0
;   minFanLayerTime,45
;   maxCoolingFanSpeed,100
;   increaseFanForBridging,0
;   bridgingFanSpeed,100
;   use5D,1
;   relativeEdistances,0
;   allowEaxisZeroing,1
;   independentExtruderAxes,0
;   includeM10123,0
;   stickySupport,1
;   applyToolheadOffsets,0
;   gcodeXoffset,0
;   gcodeYoffset,0
;   gcodeZoffset,0
;   overrideMachineDefinition,0
;   machineTypeOverride,0
;   strokeXoverride,200
;   strokeYoverride,200
;   strokeZoverride,200
;   originOffsetXoverride,0
;   originOffsetYoverride,0
;   originOffsetZoverride,0
;   homeXdirOverride,-1
;   homeYdirOverride,-1
;   homeZdirOverride,-1
;   flipXoverride,1
;   flipYoverride,-1
;   flipZoverride,1
;   toolheadOffsets,0,0|0,0|0,0|0,0|0,0|0,0
;   overrideFirmwareConfiguration,0
;   firmwareTypeOverride,RepRap (Marlin/Repetier/Sprinter)
;   GPXconfigOverride,r2
;   baudRateOverride,115200
;   overridePrinterModels,0
;   printerModelsOverride
;   startingGcode,G28 ; home all axes
;   layerChangeGcode,
;   retractionGcode,
;   toolChangeGcode,
;   endingGcode,M104 S0 ; turn off extruder,M140 S0 ; turn off bed,G28 X0 ; home axix x,M84 ; disable motors
;   exportFileFormat,gcode
;   celebration,0
;   celebrationSong,Random Song
;   postProcessing,
;   defaultSpeed,3600
;   outlineUnderspeed,0.5
;   solidInfillUnderspeed,0.8
;   supportUnderspeed,0.8
;   rapidXYspeed,4800
;   rapidZspeed,1000
;   minBridgingArea,50
;   bridgingExtraInflation,0
;   bridgingExtrusionMultiplier,1
;   bridgingSpeedMultiplier,1
;   useFixedBridgingAngle,0
;   fixedBridgingAngle,0
;   applyBridgingToPerimeters,0
;   filamentDiameters,1.75|1.75|1.75|1.75|1.75|1.75
;   filamentPricesPerKg,46|46|46|46|46|46
;   filamentDensities,1.75|1.25|1.25|1.25|1.25|1.25
;   useMinPrintHeight,0
;   minPrintHeight,0
;   useMaxPrintHeight,0
;   maxPrintHeight,0
;   useDiaphragm,0
;   diaphragmLayerInterval,20
;   robustSlicing,1
;   mergeAllIntoSolid,0
;   onlyRetractWhenCrossingOutline,1
;   retractBetweenLayers,1
;   useRetractionMinTravel,0
;   retractionMinTravel,3
;   retractWhileWiping,0
;   onlyWipeOutlines,1
;   avoidCrossingOutline,0
;   maxMovementDetourFactor,3
;   toolChangeRetractionDistance,12
;   toolChangeExtraRestartDistance,-0.5
;   toolChangeRetractionSpeed,600
;   externalThinWallType,0
;   internalThinWallType,2
;   thinWallAllowedOverlapPercentage,10
;   singleExtrusionMinLength,1
;   singleExtrusionMinPrintingWidthPercentage,50
;   singleExtrusionMaxPrintingWidthPercentage,200
;   singleExtrusionEndpointExtension,0.2
;   horizontalSizeCompensation,0
G90
M82
M127
M140 S60 T0
M134 T0
M104 S200 T0
M133 T0
G28 ; home all axes
; process Process1
; layer 1, Z = 0.200
M135 T0
G92 E0.0000
G1 E-1.6000 F2000
; feature skirt
; tool H0.200 W0.480
G1 Z0.200 F1000
G1 X76.588 Y79.915 F4800
G1 E0.0000 F2000
G92 E0.0000
G1 X79.915 Y76.588 E0.1690 F1800
G1 X120.085 Y76.588 E1.6119
G1 X123.412 Y79.915 E1.7810
G1 X123.412 Y100.085 E2.5055
G1 X120.085 Y103.412 E2.6745
G1 X113.412 Y103.412 E2.9142
G1 X113.412 Y120.085 E3.5131
G1 X110.085 Y123.412 E3.6821
G1 X89.915 Y123.412 E4.4066
G1 X86.588 Y120.085 E4.5757
G1 X86.588 Y103.412 E5.1746
G1 X79.915 Y103.412 E5.4142
G1 X76.588 Y100.085 E5.5833
G1 X76.588 Y79.915 E6.3078
G92 E0.0000
G1 E-1.6000 F2000
G1 X77.068 Y80.114 F4800
G1 E0.0000 F2000
G92 E0.0000
G1 X80.114 Y77.068 E0.1547 F1800
G1 X119.886 Y77.068 E1.5834
G1 X122.932 Y80.114 E1.7381
G1 X122.932 Y99.886 E2.4483
G1 X119.886 Y102.932 E2.6031
G1 X112.932 Y102.932 E2.8529
G1 X112.932 Y119.886 E3.4619
G1 X109.886 Y122.932 E3.6166
G1 X90.114 Y122.932 E4.3268
G1 X87.068 Y119.886 E4.4816
G1 X87.068 Y102.932 E5.0906
G1 X80.114 Y102.932 E5.3404
G1 X77.068 Y99.886 E5.4951
G1 X77.068 Y80.114 E6.2053
G92 E0.0000
G1 E-1.6000 F2000
G1 X77.548 Y80.313 F4800
G1 E0.0000 F2000
G92 E0.0000
G1 X80.313 Y77.548 E0.1405 F1800
G1 X119.687 Y77.548 E1.5548
G1 X122.452 Y80.313 E1.6953
G1 X122.452 Y99.687 E2.3912
G1 X119.687 Y102.452 E2.5317
G1 X112.452 Y102.452 E2.7916
G1 X112.452 Y119.687 E3.4107
G1 X109.687 Y122.452 E3.5511
G1 X90.313 Y122.452 E4.2471
G1 X87.548 Y119.687 E4.3875
G1 X87.548 Y102.452 E5.0066
G1 X80.313 Y102.452 E5.2665
G1 X77.548 Y99.687 E5.4070
G1 X77.548 Y80.313 E6.1029
G92 E0.0000
G1 E-1.6000 F2000
G1 X78.028 Y80.512 F4800
G1 E0.0000 F2000
G92 E0.0000
G1 X80.512 Y78.028 E0.1262 F1800
G1 X119.488 Y78.028 E1.5262
G1 X121.972 Y80.512 E1.6524
G1 X121.972 Y99.488 E2.3341
G1 X119.488 Y101.972 E2.4602
G1 X111.972 Y101.972 E2.7302
G1 X111.972 Y119.488 E3.3594
G1 X109.488 Y121.972 E3.4856
G1 X90.512 Y121.972 E4.1673
G1 X88.028 Y119.488 E4.2934
G1 X88.028 Y101.972 E4.9226
G1 X80.512 Y101.972 E5.1926
G1 X78.028 Y99.488 E5.3188
G1 X78.028 Y80.512 E6.0005
G92 E0.0000
G1 E-1.6000 F2000
; feature inner perimeter
G1 X83.468 Y83.468 F4800
G1 E0.0000 F2000
G92 E0.0000
G1 X116.532 Y83.468 E1.1877 F1350
G1 X116.532 Y96.532 E1.6570
G1 X106.532 Y96.532 E2.0162
G1 X106.532 Y116.532 E2.7346
G1 X93.468 Y116.532 E3.2039
G1 X93.468 Y96.532 E3.9223
G1 X83.468 Y96.532 E4.2815
G1 X83.468 Y83.468 E4.7508
G1 X82.988 Y82.988 F4800
G92 E0.0000
G1 X117.012 Y82.988 E1.2222 F1350
G1 X117.012 Y97.012 E1.7259
G1 X107.012 Y97.012 E2.0851
G1 X107.012 Y117.012 E2.8036
G1 X92.988 Y117.012 E3.3073
G1 X92.988 Y97.012 E4.0257
G1 X82.988 Y97.012 E4.3849
G1 X82.988 Y82.988 E4.8887
; feature outer perimeter
G1 X82.508 Y82.508 F4800
G92 E0.0000
G1 X117.492 Y82.508 E1.2567 F900
G1 X117.492 Y97.492 E1.7949
G1 X107.492 Y97.492 E2.1541
G1 X107.492 Y117.492 E2.8725
G1 X92.508 Y117.492 E3.4108
G1 X92.508 Y97.492 E4.1292
G1 X82.508 Y97.492 E4.4884
G1 X82.508 Y82.508 E5.0266
; feature solid layer
G1 X83.876 Y96.095 F4800
G92 E0.0000
G1 X83.905 Y96.124 E0.0015 F1440
G1 X84.584 Y96.124 E0.0259
G1 X83.876 Y95.416 E0.0618
G1 X83.876 Y94.737 E0.0862
G1 X85.263 Y96.124 E0.1567
G1 X85.942 Y96.124 E0.1811
G1 X83.876 Y94.058 E0.2860
G1 X83.876 Y93.380 E0.3104
G1 X86.620 Y96.124 E0.4498
G1 X87.299 Y96.124 E0.4742
G1 X83.876 Y92.701 E0.6481
G1 X83.876 Y92.022 E0.6725
G1 X87.978 Y96.124 E0.8808
G1 X88.657 Y96.124 E0.9052
G1 X83.876 Y91.343 E1.1481
G1 X83.876 Y90.664 E1.1725
G1 X89.336 Y96.124 E1.4498
G1 X90.015 Y96.124 E1.4742
G1 X83.876 Y89.985 E1.7861
G1 X83.876 Y89.307 E1.8104
G1 X90.693 Y96.124 E2.1568
G1 X91.372 Y96.124 E2.1812
G1 X83.876 Y88.628 E2.5620
G1 X83.876 Y87.949 E2.5863
G1 X92.051 Y96.124 E3.0016
G1 X92.730 Y96.124 E3.0260
G1 X83.876 Y87.270 E3.4758
G1 X83.876 Y86.591 E3.5002
G1 X93.409 Y96.124 E3.9844
G1 X93.876 Y96.124 E4.0012
G1 X93.876 Y96.591 E4.0180
G1 X106.124 Y108.839 E4.6402
G1 X106.124 Y108.160 E4.6646
G1 X83.876 Y85.912 E5.7948
G1 X83.876 Y85.234 E5.8192
G1 X106.124 Y107.482 E6.9494
G1 X106.124 Y106.803 E6.9737
G1 X83.876 Y84.555 E8.1039
G1 X83.876 Y83.876 E8.1283
G1 X106.124 Y106.124 E9.2585
G1 X106.124 Y105.445 E9.2829
G1 X84.555 Y83.876 E10.3786
G1 X85.234 Y83.876 E10.4030
G1 X106.124 Y104.766 E11.4642
G1 X106.124 Y104.087 E11.4886
G1 X85.912 Y83.876 E12.5153
G1 X86.591 Y83.876 E12.5397
G1 X106.124 Y103.409 E13.5320
G1 X106.124 Y102.730 E13.5564
G1 X87.270 Y83.876 E14.5141
G1 X87.949 Y83.876 E14.5385
G1 X106.124 Y102.051 E15.4618
G1 X106.124 Y101.372 E15.4862
G1 X88.628 Y83.876 E16.3750
G1 X89.307 Y83.876 E16.3994
G1 X106.124 Y100.693 E17.2537
G1 X106.124 Y100.015 E17.2781
G1 X89.985 Y83.876 E18.0979
G1 X90.664 Y83.876 E18.1223
G1 X106.124 Y99.336 E18.9077
G1 X106.124 Y98.657 E18.9321
G1 X91.343 Y83.876 E19.6829
G1 X92.022 Y83.876 E19.7073
G1 X106.124 Y97.978 E20.4237
G1 X106.124 Y97.299 E20.4481
G1 X92.701 Y83.876 E21.1300
G1 X93.380 Y83.876 E21.1544
G1 X106.124 Y96.620 E21.8018
G1 X106.124 Y96.124 E21.8196
G1 X106.306 Y96.124 E21.8262
G1 X94.058 Y83.876 E22.4484
G1 X94.737 Y83.876 E22.4727
G1 X106.985 Y96.124 E23.0949
G1 X107.664 Y96.124 E23.1193
G1 X95.416 Y83.876 E23.7415
G1 X96.095 Y83.876 E23.7659
G1 X108.343 Y96.124 E24.3881
G1 X109.022 Y96.124 E24.4125
G1 X96.774 Y83.876 E25.0347
G1 X97.452 Y83.876 E25.0591
G1 X109.700 Y96.124 E25.6813
G1 X110.379 Y96.124 E25.7056
G1 X98.131 Y83.876 E26.3278
G1 X98.810 Y83.876 E26.3522
G1 X111.058 Y96.124 E26.9744
G1 X111.737 Y96.124 E26.9988
G1 X99.489 Y83.876 E27.6210
G1 X100.168 Y83.876 E27.6454
G1 X112.416 Y96.124 E28.2676
G1 X113.095 Y96.124 E28.2920
G1 X100.847 Y83.876 E28.9142
G1 X101.525 Y83.876 E28.9385
G1 X113.773 Y96.124 E29.5607
G1 X114.452 Y96.124 E29.5851
G1 X102.204 Y83.876 E30.2073
G1 X102.883 Y83.876 E30.2317
G1 X115.131 Y96.124 E30.8539
G1 X115.810 Y96.124 E30.8783
G1 X103.562 Y83.876 E31.5005
G1 X104.241 Y83.876 E31.5249
G1 X116.124 Y95.759 E32.1285
G1 X116.124 Y95.080 E32.1529
G1 X104.920 Y83.876 E32.7221
G1 X105.598 Y83.876 E32.7465
G1 X116.124 Y94.402 E33.2812
G1 X116.124 Y93.723 E33.3056
G1 X106.277 Y83.876 E33.8058
G1 X106.956 Y83.876 E33.8302
G1 X116.124 Y93.044 E34.2959
G1 X116.124 Y92.365 E34.3203
G1 X107.635 Y83.876 E34.7515
G1 X108.314 Y83.876 E34.7759
G1 X116.124 Y91.686 E35.1727
G1 X116.124 Y91.008 E35.1971
G1 X108.992 Y83.876 E35.5593
G1 X109.671 Y83.876 E35.5837
G1 X116.124 Y90.329 E35.9115
G1 X116.124 Y89.650 E35.9359
G1 X110.350 Y83.876 E36.2292
G1 X111.029 Y83.876 E36.2536
G1 X116.124 Y88.971 E36.5124
G1 X116.124 Y88.292 E36.5368
G1 X111.708 Y83.876 E36.7612
G1 X112.387 Y83.876 E36.7855
G1 X116.124 Y87.613 E36.9754
G1 X116.124 Y86.935 E36.9998
G1 X113.065 Y83.876 E37.1552
G1 X113.744 Y83.876 E37.1795
G1 X116.124 Y86.256 E37.3004
G1 X116.124 Y85.577 E37.3248
G1 X114.423 Y83.876 E37.4112
G1 X115.102 Y83.876 E37.4356
G1 X116.124 Y84.898 E37.4875
G1 X116.124 Y84.219 E37.5119
G1 X115.781 Y83.876 E37.5294
G1 X93.876 Y97.270 F4800
G92 E0.0000
G1 X106.124 Y109.518 E0.6222 F1440
G1 X106.124 Y110.197 E0.6466
G1 X93.876 Y97.949 E1.2688
G1 X93.876 Y98.628 E1.2932
G1 X106.124 Y110.876 E1.9154
G1 X106.124 Y111.555 E1.9397
G1 X93.876 Y99.307 E2.5619
G1 X93.876 Y99.985 E2.5863
G1 X106.124 Y112.233 E3.2085
G1 X106.124 Y112.912 E3.2329
G1 X93.876 Y100.664 E3.8551
G1 X93.876 Y101.343 E3.8795
G1 X106.124 Y113.591 E4.5017
G1 X106.124 Y114.270 E4.5261
G1 X93.876 Y102.022 E5.1483
G1 X93.876 Y102.701 E5.1726
G1 X106.124 Y114.949 E5.7948
G1 X106.124 Y115.627 E5.8192
G1 X93.876 Y103.380 E6.4414
G1 X93.876 Y104.058 E6.4658
G1 X105.942 Y116.124 E7.0787
G1 X105.263 Y116.124 E7.1031
G1 X93.876 Y104.737 E7.6816
G1 X93.876 Y105.416 E7.7059
G1 X104.584 Y116.124 E8.2499
G1 X103.905 Y116.124 E8.2743
G1 X93.876 Y106.095 E8.7838
G1 X93.876 Y106.774 E8.8082
G1 X103.226 Y116.124 E9.2832
G1 X102.548 Y116.124 E9.3075
G1 X93.876 Y107.452 E9.7481
G1 X93.876 Y108.131 E9.7724
G1 X101.869 Y116.124 E10.1785
G1 X101.190 Y116.124 E10.2029
G1 X93.876 Y108.810 E10.5744
G1 X93.876 Y109.489 E10.5988
G1 X100.511 Y116.124 E10.9358
G1 X99.832 Y116.124 E10.9602
G1 X93.876 Y110.168 E11.2628
G1 X93.876 Y110.847 E11.2872
G1 X99.153 Y116.124 E11.5553
G1 X98.475 Y116.124 E11.5797
G1 X93.876 Y111.525 E11.8133
G1 X93.876 Y112.204 E11.8377
G1 X97.796 Y116.124 E12.0368
G1 X97.117 Y116.124 E12.0612
G1 X93.876 Y112.883 E12.2258
G1 X93.876 Y113.562 E12.2502
G1 X96.438 Y116.124 E12.3803
G1 X95.759 Y116.124 E12.4047
G1 X93.876 Y114.241 E12.5004
G1 X93.876 Y114.919 E12.5248
G1 X95.080 Y116.124 E12.5860
G1 X94.402 Y116.124 E12.6104
G1 X93.876 Y115.598 E12.6371
G92 E0.0000
G1 E-1.6000 F2000
; layer 2, Z = 0.400
M126 S255
; feature inner perimeter
G1 Z0.400 F1000
G1 X92.903 Y117.097 F4800
G1 E0.0000 F2000
G92 E0.0000
G1 X92.903 Y97.097 E0.7184 F2700
G1 X82.903 Y97.097 E1.0776
G1 X82.903 Y82.903 E1.5875
G1 X117.097 Y82.903 E2.8157
G1 X117.097 Y97.097 E3.3256
G1 X107.097 Y97.097 E3.6848
G1 X107.097 Y117.097 E4.4032
G1 X92.903 Y117.097 E4.9131
G1 X92.423 Y117.577 F4800
G92 E0.0000
G1 X92.423 Y97.577 E0.7184 F2700
G1 X82.423 Y97.577 E1.0776
G1 X82.423 Y82.423 E1.6220
G1 X117.577 Y82.423 E2.8847
G1 X117.577 Y97.577 E3.4290
G1 X107.577 Y97.577 E3.7883
G1 X107.577 Y117.577 E4.5067
G1 X92.423 Y117.577 E5.0510
; feature outer perimeter
G1 X91.943 Y118.057 F4800
G92 E0.0000
G1 X91.943 Y98.057 E0.7184 F1800
G1 X81.943 Y98.057 E1.0776
G1 X81.943 Y81.943 E1.6564
G1 X118.057 Y81.943 E2.9537
G1 X118.057 Y98.057 E3.5325
G1 X108.057 Y98.057 E3.8917
G1 X108.057 Y118.057 E4.6101
G1 X91.943 Y118.057 E5.1889
; feature solid layer
G1 X106.391 Y116.689 F4800
G92 E0.0000
G1 X106.689 Y116.391 E0.0151 F2880
G1 X106.689 Y115.712 E0.0395
G1 X105.712 Y116.689 E0.0891
G1 X105.034 Y116.689 E0.1135
G1 X106.689 Y115.034 E0.1976
G1 X106.689 Y114.355 E0.2220
G1 X104.355 Y116.689 E0.3405
G1 X103.676 Y116.689 E0.3649
G1 X106.689 Y113.676 E0.5180
G1 X106.689 Y112.997 E0.5424
G1 X102.997 Y116.689 E0.7299
G1 X102.318 Y116.689 E0.7543
G1 X106.689 Y112.318 E0.9763
G1 X106.689 Y111.639 E1.0007
G1 X101.639 Y116.689 E1.2572
